public/images/globe.svg

<svg width="20" height="20" viewBox="0 0 20 20" xmlns="http://www.w3.org/2000/svg"><title>Shape</title><path d="M9.6.4C4.307.4 0 4.707 0 10c0 5.293 4.306 9.6 9.6 9.6s9.6-4.307 9.6-9.6c0-5.293-4.306-9.6-9.6-9.6zm8.19 9.6c0 1.873-.637 3.6-1.697 4.98-.3-.234-.62-.867-.32-1.523.304-.66.383-2.188.313-2.783-.066-.594-.375-2.025-1.214-2.04-.838-.01-1.413-.288-1.91-1.282-1.034-2.068 1.938-2.465.905-3.61-.29-.32-1.783 1.323-2.002-.868-.014-.157.135-.392.336-.636 3.245 1.09 5.59 4.157 5.59 7.762zM8.475 1.893c-.196.382-.713.537-1.027.824-.685.62-.98.533-1.347 1.127-.37.594-1.567 1.45-1.567 1.88 0 .43.604.935.906.837.302-.1 1.1-.093 1.567.07.468.167 3.913.333 2.815 3.245-.348.926-1.873.77-2.28 2.303-.06.225-.27 1.186-.284 1.5-.024.486.345 2.318-.124 2.318-.47 0-1.738-1.64-1.738-1.936 0-.297-.328-1.338-.328-2.23 0-.89-1.518-.877-1.518-2.062 0-1.068.823-1.6.638-2.113-.18-.51-1.627-.527-2.23-.59 1.053-2.73 3.53-4.758 6.516-5.172zM7.026 17.77c.49-.26.54-.596.987-.613.51-.023.925-.2 1.5-.326.51-.11 1.423-.628 2.226-.694.677-.055 2.014.035 2.374.69-1.295.86-2.848 1.362-4.514 1.362-.9 0-1.765-.15-2.575-.418z" fill="#3F3242" fill-rule="evenodd"/></svg>

<?xml version="1.0" encoding="UTF-8" standalone="no"?>
<svg width="20px" height="20px" viewBox="0 0 20 20" version="1.1" xmlns="http://www.w3.org/2000/svg" xmlns:xlink="http://www.w3.org/1999/xlink" xmlns:sketch="http://www.bohemiancoding.com/sketch/ns">
    <!-- Generator: Sketch 3.4 (15575) - http://www.bohemiancoding.com/sketch -->
    <title>Shape</title>
    <desc>Created with Sketch.</desc>
    <defs></defs>
    <g id="Production" stroke="none" stroke-width="1" fill="none" fill-rule="evenodd" sketch:type="MSPage">
        <g id="Jobs-description-Copy" sketch:type="MSArtboardGroup" transform="translate(-843.000000, -382.000000)" fill="#3F3242">
            <g id="Group" sketch:type="MSLayerGroup" transform="translate(843.000000, 382.000000)">
                <path d="M9.601,0.4 C4.306,0.4 -1.11910481e-13,4.707 -1.11910481e-13,10 C-1.11910481e-13,15.293 4.306,19.6 9.601,19.6 C14.894,19.6 19.201,15.293 19.201,10 C19.201,4.707 14.894,0.4 9.601,0.4 L9.601,0.4 Z M17.789,10 C17.789,11.873 17.153,13.6 16.093,14.98 C15.793,14.746 15.474,14.113 15.774,13.457 C16.077,12.797 16.156,11.269 16.086,10.674 C16.02,10.08 15.711,8.649 14.872,8.635 C14.034,8.623 13.459,8.346 12.961,7.352 C11.928,5.284 14.9,4.887 13.867,3.743 C13.578,3.421 12.084,5.065 11.865,2.874 C11.851,2.717 12,2.482 12.201,2.238 C15.445,3.328 17.789,6.395 17.789,10 L17.789,10 Z M8.476,1.893 C8.28,2.275 7.763,2.43 7.449,2.717 C6.765,3.336 6.471,3.25 6.103,3.844 C5.732,4.438 4.536,5.293 4.536,5.723 C4.536,6.153 5.14,6.659 5.442,6.561 C5.744,6.461 6.541,6.467 7.009,6.631 C7.478,6.797 10.923,6.963 9.825,9.875 C9.477,10.801 7.952,10.645 7.546,12.178 C7.485,12.403 7.274,13.364 7.261,13.678 C7.236,14.164 7.605,15.996 7.136,15.996 C6.665,15.996 5.398,14.357 5.398,14.06 C5.398,13.763 5.07,12.722 5.07,11.83 C5.07,10.939 3.552,10.953 3.552,9.768 C3.552,8.7 4.375,8.168 4.19,7.655 C4.009,7.145 2.563,7.128 1.96,7.065 C3.013,4.334 5.49,2.307 8.476,1.893 L8.476,1.893 Z M7.025,17.77 C7.517,17.51 7.567,17.174 8.013,17.157 C8.523,17.134 8.938,16.958 9.513,16.831 C10.023,16.72 10.936,16.202 11.739,16.136 C12.417,16.081 13.754,16.171 14.114,16.825 C12.819,17.686 11.266,18.188 9.6,18.188 C8.701,18.188 7.835,18.039 7.025,17.77 L7.025,17.77 Z" id="Shape" sketch:type="MSShapeGroup"></path>
            </g>
        </g>
    </g>
</svg>
